;FLAVOR:Marlin
;TIME:6984
;Filament used: 4.54024m
;Layer height: 0.2
;MINX:22.512
;MINY:74.015
;MINZ:0.2
;MAXX:197.5
;MAXY:145.985
;MAXZ:20
;Generated with Cura_SteamEngine 5.4.0
M82 ;absolute extrusion mode
; Ender 3 Custom Start G-code
G92 E0 ; Reset Extruder
G28 ; Home all axes
M104 S175 ; Start heating up the nozzle most of the way
M190 S60 ; Start heating the bed, wait until target temperature reached
M109 S200 ; Finish heating the nozzle
G1 Z2.0 F3000 ; Move Z Axis up little to prevent scratching of Heat Bed
G1 X0.1 Y20 Z0.3 F5000.0 ; Move to start position
G1 X0.1 Y200.0 Z0.3 F1500.0 E15 ; Draw the first line
G1 X0.4 Y200.0 Z0.3 F5000.0 ; Move to side a little
G1 X0.4 Y20 Z0.3 F1500.0 E30 ; Draw the second line
G92 E0 ; Reset Extruder
G1 Z2.0 F3000 ; Move Z Axis up little to prevent scratching of Heat Bed
G1 X5 Y20 Z0.3 F5000.0 ; Move over to prevent blob squish
G92 E0
G92 E0
G1 F1500 E-6.5
;LAYER_COUNT:100
;LAYER:0
M107
G0 F6000 X41.379 Y78.358 Z0.2
;TYPE:SKIRT
G1 F1500 E0
G1 F1200 X42.715 Y77.677 E0.04988
G1 X43.512 Y77.285 E0.07942
G1 X44.027 Y77.05 E0.09824
G1 X44.576 Y76.824 E0.11799
G1 X46.203 Y76.198 E0.17597
G1 X47.024 Y75.895 E0.20508
G1 X47.739 Y75.66 E0.23011
G1 X48.411 Y75.47 E0.25334
G1 X49.956 Y75.056 E0.30654
G1 X50.637 Y74.886 E0.32988
G1 X51.179 Y74.765 E0.34835
G1 X51.781 Y74.653 E0.36872
G1 X53.613 Y74.361 E0.43042
G1 X54.343 Y74.257 E0.45495
G1 X54.941 Y74.188 E0.47497
G1 X55.527 Y74.144 E0.49451
G1 X57.392 Y74.043 E0.55664
G1 X58.109 Y74.017 E0.5805
G1 X58.851 Y74.015 E0.60518
G1 X59.571 Y74.042 E0.62914
G1 X61.135 Y74.124 E0.68123
G1 X61.859 Y74.172 E0.70537
G1 X62.589 Y74.247 E0.72977
G1 X63.082 Y74.314 E0.74632
G1 X64.867 Y74.596 E0.80643
G1 X65.587 Y74.719 E0.83072
G1 X66.339 Y74.877 E0.85628
G1 X67.019 Y75.049 E0.87961
G1 X68.591 Y75.47 E0.93374
G1 X69.291 Y75.671 E0.95796
G1 X69.955 Y75.887 E0.98118
G1 X70.613 Y76.124 E1.00444
G1 X74.329 Y77.547 E1.13679
G1 X76.695 Y78.379 E1.22021
G1 X79.125 Y79.156 E1.30506
G1 X81.498 Y79.841 E1.38721
G1 X83.932 Y80.47 E1.47082
G1 X86.438 Y81.042 E1.55632
G1 X88.856 Y81.523 E1.63832
G1 X91.381 Y81.951 E1.7235
G1 X93.802 Y82.291 E1.80481
G1 X96.364 Y82.578 E1.89056
G1 X98.867 Y82.789 E1.9741
G1 X101.328 Y82.923 E2.05607
G1 X105.123 Y83 E2.18232
G1 X135.95 Y83.001 E3.20763
G1 X136.688 Y83.013 E3.23218
G1 X137.66 Y83.072 E3.26457
G1 X138.623 Y83.218 E3.29697
G1 X139.57 Y83.449 E3.32939
G1 X140.459 Y83.75 E3.3606
G1 X141.387 Y84.159 E3.39433
G1 X142.365 Y84.707 E3.43162
G1 X144.271 Y85.908 E3.50655
G1 X146.46 Y87.211 E3.59128
G1 X148.642 Y88.428 E3.67438
G1 X150.881 Y89.597 E3.75839
G1 X153.125 Y90.687 E3.84136
G1 X155.415 Y91.722 E3.92495
G1 X157.802 Y92.719 E4.01098
G1 X160.089 Y93.601 E4.09251
G1 X162.481 Y94.444 E4.17686
G1 X164.884 Y95.216 E4.26081
G1 X167.304 Y95.92 E4.34464
G1 X169.704 Y96.543 E4.42711
G1 X172.218 Y97.121 E4.51291
G1 X174.658 Y97.61 E4.59567
G1 X177.138 Y98.035 E4.67936
G1 X179.62 Y98.387 E4.76274
G1 X182.099 Y98.668 E4.84572
G1 X184.665 Y98.887 E4.93138
G1 X187.165 Y99.032 E5.01467
G1 X188.133 Y99.134 E5.04704
G1 X189.02 Y99.306 E5.07709
G1 X190.025 Y99.595 E5.11187
G1 X190.932 Y99.948 E5.14424
G1 X191.804 Y100.38 E5.17661
G1 X192.635 Y100.888 E5.209
G1 X193.418 Y101.467 E5.24139
G1 X194.122 Y102.089 E5.27264
G1 X194.816 Y102.822 E5.30621
G1 X195.419 Y103.586 E5.33858
G1 X195.952 Y104.401 E5.37097
G1 X196.412 Y105.26 E5.40338
G1 X196.792 Y106.156 E5.43575
G1 X197.094 Y107.083 E5.46818
G1 X197.31 Y108.032 E5.50055
G1 X197.442 Y108.987 E5.53262
G1 X197.487 Y109.706 E5.55658
G1 X197.5 Y110.33 E5.57734
G1 X197.499 Y119.4 E5.87901
G1 X197.488 Y120.163 E5.90439
G1 X197.431 Y121.136 E5.9368
G1 X197.286 Y122.099 E5.96919
G1 X197.057 Y123.045 E6.00157
G1 X196.746 Y123.969 E6.03399
G1 X196.354 Y124.86 E6.06637
G1 X195.886 Y125.712 E6.0987
G1 X195.364 Y126.493 E6.12994
G1 X194.731 Y127.278 E6.16348
G1 X194.106 Y127.929 E6.1935
G1 X193.317 Y128.617 E6.22832
G1 X192.557 Y129.167 E6.25952
G1 X191.69 Y129.684 E6.2931
G1 X190.812 Y130.106 E6.3255
G1 X189.901 Y130.448 E6.35786
G1 X188.962 Y130.709 E6.39028
G1 X187.996 Y130.887 E6.42295
G1 X186.845 Y130.985 E6.46137
G1 X186.188 Y131 E6.48322
G1 X153.596 Y131 E7.56724
G1 X151.012 Y131.037 E7.65319
G1 X148.447 Y131.146 E7.73858
G1 X145.968 Y131.322 E7.82124
G1 X143.467 Y131.569 E7.90483
G1 X140.959 Y131.89 E7.98893
G1 X138.476 Y132.28 E8.07252
G1 X136.033 Y132.734 E8.15517
G1 X133.541 Y133.271 E8.23996
G1 X131.095 Y133.87 E8.32371
G1 X128.673 Y134.535 E8.40725
G1 X126.282 Y135.268 E8.49043
G1 X123.88 Y136.079 E8.57475
G1 X121.509 Y136.953 E8.6588
G1 X119.224 Y137.871 E8.7407
G1 X116.853 Y138.903 E8.82671
G1 X114.567 Y139.974 E8.91067
G1 X112.365 Y141.083 E8.99267
G1 X110.122 Y142.295 E9.07747
G1 X107.989 Y143.523 E9.15933
G1 X107.09 Y143.985 E9.19295
G1 X106.188 Y144.352 E9.22534
G1 X105.257 Y144.637 E9.25772
G1 X104.307 Y144.839 E9.29003
G1 X103.41 Y144.951 E9.32009
G1 X102.86 Y144.983 E9.33842
G1 X102.17 Y145 E9.36137
G1 X87.049 Y144.999 E9.8643
G1 X86.33 Y144.989 E9.88821
G1 X85.737 Y144.963 E9.90796
G1 X84.947 Y144.907 E9.9343
G1 X83.493 Y144.781 E9.98284
G1 X81.047 Y144.642 E10.06433
G1 X78.483 Y144.569 E10.14964
G1 X75.993 Y144.569 E10.23246
G1 X73.457 Y144.64 E10.31684
G1 X70.976 Y144.78 E10.39949
G1 X68.404 Y144.996 E10.48533
G1 X65.949 Y145.275 E10.56751
G1 X62.637 Y145.745 E10.67877
G1 X62.065 Y145.812 E10.69793
G1 X61.473 Y145.856 E10.71767
G1 X59.608 Y145.957 E10.77979
G1 X58.891 Y145.983 E10.80366
G1 X58.148 Y145.985 E10.82837
G1 X57.43 Y145.958 E10.85227
G1 X55.866 Y145.876 E10.90436
G1 X55.142 Y145.828 E10.92849
G1 X54.411 Y145.753 E10.95293
G1 X53.656 Y145.647 E10.97829
G1 X51.511 Y145.298 E11.05057
G1 X50.665 Y145.124 E11.0793
G1 X50.159 Y144.997 E11.09665
G1 X48.409 Y144.53 E11.15689
G1 X47.709 Y144.329 E11.18111
G1 X47.028 Y144.108 E11.20493
G1 X46.357 Y143.862 E11.2287
G1 X45.065 Y143.367 E11.27472
G1 X44.239 Y143.036 E11.30431
G1 X43.695 Y142.802 E11.32401
G1 X43.143 Y142.538 E11.34436
G1 X41.519 Y141.712 E11.40496
G1 X40.863 Y141.367 E11.42961
G1 X40.173 Y140.971 E11.45607
G1 X39.558 Y140.584 E11.48024
G1 X38.41 Y139.838 E11.52578
G1 X37.65 Y139.328 E11.55622
G1 X37.05 Y138.894 E11.58085
G1 X36.526 Y138.486 E11.60294
G1 X35.277 Y137.472 E11.65644
G1 X34.712 Y137 E11.68093
G1 X34.29 Y136.626 E11.69968
G1 X33.849 Y136.209 E11.71987
G1 X32.503 Y134.865 E11.78314
G1 X32.019 Y134.366 E11.80626
G1 X31.631 Y133.942 E11.82537
G1 X31.24 Y133.484 E11.8454
G1 X30.176 Y132.173 E11.90156
G1 X29.624 Y131.472 E11.93124
G1 X29.183 Y130.869 E11.95608
G1 X28.763 Y130.244 E11.98113
G1 X27.938 Y128.973 E12.03153
G1 X27.531 Y128.328 E12.05689
G1 X27.173 Y127.712 E12.08059
G1 X26.854 Y127.115 E12.1031
G1 X26.109 Y125.647 E12.15786
G1 X25.785 Y124.988 E12.18228
G1 X25.55 Y124.473 E12.20111
G1 X25.324 Y123.924 E12.22086
G1 X24.698 Y122.297 E12.27884
G1 X24.395 Y121.476 E12.30795
G1 X24.16 Y120.761 E12.33298
G1 X23.969 Y120.088 E12.35625
G1 X23.598 Y118.706 E12.40384
G1 X23.387 Y117.871 E12.43248
G1 X23.233 Y117.164 E12.45655
G1 X23.144 Y116.669 E12.47328
G1 X22.861 Y114.883 E12.53342
G1 X22.757 Y114.153 E12.55795
G1 X22.688 Y113.565 E12.57764
G1 X22.644 Y112.973 E12.59738
G1 X22.543 Y111.106 E12.65957
G1 X22.517 Y110.39 E12.6834
G1 X22.512 Y109.772 E12.70395
G1 X22.53 Y109.192 E12.72326
G1 X22.615 Y107.519 E12.77897
G1 X22.674 Y106.629 E12.80864
G1 X22.748 Y105.901 E12.83298
G1 X22.853 Y105.156 E12.858
G1 X23.203 Y103.004 E12.93052
G1 X23.384 Y102.131 E12.96017
G1 X23.549 Y101.481 E12.98247
G1 X23.97 Y99.909 E13.0366
G1 X24.171 Y99.209 E13.06082
G1 X24.387 Y98.544 E13.08408
G1 X24.631 Y97.875 E13.10776
G1 X25.134 Y96.563 E13.1545
G1 X25.464 Y95.739 E13.18402
G1 X25.698 Y95.195 E13.20372
G1 X25.961 Y94.643 E13.22405
G1 X26.724 Y93.143 E13.28003
G1 X27.133 Y92.364 E13.30929
G1 X27.526 Y91.678 E13.33559
G1 X27.916 Y91.058 E13.35995
G1 X28.662 Y89.91 E13.40549
G1 X29.172 Y89.15 E13.43593
G1 X29.606 Y88.55 E13.46056
G1 X30.014 Y88.026 E13.48265
G1 X31.014 Y86.793 E13.53545
G1 X31.489 Y86.223 E13.56013
G1 X31.989 Y85.664 E13.58507
G1 X32.334 Y85.305 E13.60163
G1 X33.62 Y84.017 E13.66217
G1 X34.118 Y83.533 E13.68526
G1 X34.58 Y83.11 E13.7061
G1 X35.016 Y82.74 E13.72512
G1 X36.327 Y81.676 E13.78128
G1 X37.021 Y81.129 E13.81067
G1 X37.634 Y80.681 E13.83592
G1 X38.256 Y80.263 E13.86084
G1 X39.527 Y79.438 E13.91124
G1 X40.172 Y79.031 E13.93661
G1 X40.797 Y78.668 E13.96065
G1 X41.379 Y78.358 E13.98258
G0 F6000 X41.561 Y78.714
G1 F1200 X42.892 Y78.036 E14.03226
G1 X43.678 Y77.649 E14.0614
G1 X44.179 Y77.42 E14.07972
G1 X44.72 Y77.197 E14.09919
G1 X46.341 Y76.573 E14.15696
G1 X47.149 Y76.275 E14.1856
G1 X47.848 Y76.045 E14.21008
G1 X48.515 Y75.856 E14.23313
G1 X50.053 Y75.444 E14.28609
G1 X50.724 Y75.276 E14.3091
G1 X51.252 Y75.158 E14.32709
G1 X51.844 Y75.048 E14.34712
G1 X53.67 Y74.757 E14.40862
G1 X54.389 Y74.654 E14.43278
G1 X54.971 Y74.587 E14.45226
G1 X55.548 Y74.543 E14.47151
G1 X57.407 Y74.443 E14.53343
G1 X58.11 Y74.417 E14.55683
G1 X58.836 Y74.415 E14.58097
G1 X59.55 Y74.441 E14.60474
G1 X61.109 Y74.523 E14.65666
G1 X61.818 Y74.57 E14.68029
G1 X62.535 Y74.643 E14.70427
G1 X63.02 Y74.709 E14.72055
G1 X64.799 Y74.99 E14.78045
G1 X65.505 Y75.111 E14.80427
G1 X66.241 Y75.265 E14.82928
G1 X66.915 Y75.435 E14.8524
G1 X68.481 Y75.855 E14.90633
G1 X69.168 Y76.052 E14.9301
G1 X69.819 Y76.263 E14.95286
G1 X70.47 Y76.498 E14.97588
G1 X74.186 Y77.921 E15.10823
G1 X76.573 Y78.76 E15.19238
G1 X79.003 Y79.537 E15.27723
G1 X81.392 Y80.227 E15.35994
G1 X83.843 Y80.86 E15.44413
G1 X86.349 Y81.432 E15.52963
G1 X88.783 Y81.916 E15.61217
G1 X91.325 Y82.347 E15.69792
G1 X93.757 Y82.689 E15.77961
G1 X96.319 Y82.976 E15.86535
G1 X98.834 Y83.187 E15.9493
G1 X101.32 Y83.323 E16.0321
G1 X105.115 Y83.4 E16.15835
G1 X135.944 Y83.401 E17.18373
G1 X136.664 Y83.412 E17.20768
G1 X137.601 Y83.468 E17.2389
G1 X138.529 Y83.607 E17.27011
G1 X139.442 Y83.828 E17.30135
G1 X140.298 Y84.116 E17.33139
G1 X141.192 Y84.508 E17.36386
G1 X142.152 Y85.045 E17.40044
G1 X144.066 Y86.252 E17.47571
G1 X146.255 Y87.555 E17.56043
G1 X148.457 Y88.783 E17.64429
G1 X150.706 Y89.957 E17.72867
G1 X152.96 Y91.052 E17.81202
G1 X155.25 Y92.086 E17.89559
G1 X157.658 Y93.092 E17.98239
G1 X159.949 Y93.975 E18.06405
G1 X162.359 Y94.825 E18.14905
G1 X164.765 Y95.598 E18.2331
G1 X167.197 Y96.305 E18.31734
G1 X169.614 Y96.933 E18.4004
G1 X172.128 Y97.511 E18.48619
G1 X174.583 Y98.003 E18.56947
G1 X177.082 Y98.431 E18.6538
G1 X179.564 Y98.783 E18.73718
G1 X182.065 Y99.067 E18.82089
G1 X184.631 Y99.285 E18.90655
G1 X187.124 Y99.43 E18.9896
G1 X188.057 Y99.527 E19.0208
G1 X188.944 Y99.699 E19.05085
G1 X189.88 Y99.968 E19.08325
G1 X190.755 Y100.307 E19.11446
G1 X191.596 Y100.722 E19.14565
G1 X192.398 Y101.21 E19.17687
G1 X193.153 Y101.767 E19.20808
G1 X193.857 Y102.389 E19.23932
G1 X194.502 Y103.07 E19.27052
G1 X195.085 Y103.806 E19.30175
G1 X195.6 Y104.59 E19.33295
G1 X196.044 Y105.417 E19.36417
G1 X196.412 Y106.28 E19.39537
G1 X196.704 Y107.173 E19.42662
G1 X196.914 Y108.087 E19.45781
G1 X197.043 Y109.012 E19.48888
G1 X197.087 Y109.714 E19.51227
G1 X197.1 Y110.33 E19.53276
G1 X197.099 Y119.395 E19.83427
G1 X197.089 Y120.14 E19.85905
G1 X197.035 Y121.077 E19.89026
G1 X196.897 Y122.006 E19.9215
G1 X196.678 Y122.918 E19.9527
G1 X196.38 Y123.808 E19.98391
G1 X196.003 Y124.668 E20.01515
G1 X195.553 Y125.49 E20.04631
G1 X195.031 Y126.271 E20.07756
G1 X194.442 Y127.001 E20.10876
G1 X193.817 Y127.652 E20.13877
G1 X193.082 Y128.293 E20.17121
G1 X192.322 Y128.843 E20.20241
G1 X191.516 Y129.324 E20.23363
G1 X190.671 Y129.732 E20.26484
G1 X189.793 Y130.063 E20.29605
G1 X188.889 Y130.316 E20.32727
G1 X187.962 Y130.488 E20.35863
G1 X186.811 Y130.586 E20.39705
G1 X186.179 Y130.6 E20.41807
G1 X153.59 Y130.6 E21.50199
G1 X150.995 Y130.637 E21.58831
G1 X148.43 Y130.746 E21.6737
G1 X145.937 Y130.923 E21.75682
G1 X143.416 Y131.172 E21.84108
G1 X140.908 Y131.493 E21.92518
G1 X138.414 Y131.885 E22.00915
G1 X135.949 Y132.343 E22.09254
G1 X133.446 Y132.882 E22.17769
G1 X131 Y133.481 E22.26145
G1 X128.567 Y134.15 E22.34538
G1 X126.154 Y134.889 E22.42931
G1 X123.752 Y135.7 E22.51364
G1 X121.36 Y136.582 E22.59843
G1 X119.064 Y137.504 E22.68072
G1 X116.693 Y138.536 E22.76673
G1 X114.397 Y139.612 E22.85106
G1 X112.175 Y140.731 E22.93381
G1 X109.922 Y141.948 E23.01898
G1 X107.789 Y143.176 E23.10084
G1 X106.939 Y143.615 E23.13266
G1 X106.07 Y143.97 E23.16388
G1 X105.173 Y144.246 E23.1951
G1 X104.257 Y144.442 E23.22625
G1 X103.36 Y144.554 E23.25632
G1 X102.85 Y144.583 E23.27331
G1 X102.17 Y144.6 E23.29593
G1 X87.055 Y144.599 E23.79866
G1 X86.347 Y144.589 E23.82221
G1 X85.765 Y144.564 E23.84158
G1 X84.981 Y144.508 E23.86773
G1 X83.527 Y144.383 E23.91627
G1 X81.058 Y144.242 E23.99852
G1 X78.494 Y144.169 E24.08383
G1 X75.982 Y144.169 E24.16738
G1 X73.446 Y144.24 E24.25176
G1 X70.942 Y144.381 E24.33518
G1 X68.37 Y144.598 E24.42103
G1 X65.893 Y144.879 E24.50394
G1 X62.591 Y145.348 E24.61487
G1 X62.035 Y145.413 E24.63349
G1 X61.452 Y145.457 E24.65293
G1 X59.593 Y145.557 E24.71485
G1 X58.89 Y145.583 E24.73825
G1 X58.163 Y145.585 E24.76243
G1 X57.451 Y145.559 E24.78613
G1 X55.892 Y145.477 E24.83805
G1 X55.183 Y145.43 E24.86168
G1 X54.467 Y145.357 E24.88562
G1 X53.72 Y145.252 E24.91071
G1 X51.592 Y144.906 E24.98242
G1 X50.746 Y144.732 E25.01115
G1 X50.262 Y144.611 E25.02774
G1 X48.519 Y144.145 E25.08775
G1 X47.832 Y143.948 E25.11152
G1 X47.165 Y143.732 E25.13484
G1 X46.5 Y143.489 E25.15839
G1 X45.214 Y142.996 E25.20419
G1 X44.397 Y142.669 E25.23346
G1 X43.867 Y142.441 E25.25265
G1 X43.324 Y142.182 E25.27266
G1 X41.705 Y141.358 E25.33308
G1 X41.062 Y141.02 E25.35724
G1 X40.386 Y140.632 E25.38317
G1 X39.776 Y140.248 E25.40714
G1 X38.633 Y139.506 E25.45247
G1 X37.884 Y139.004 E25.48246
G1 X37.296 Y138.579 E25.50659
G1 X36.778 Y138.175 E25.52844
G1 X35.533 Y137.165 E25.58176
G1 X34.977 Y136.701 E25.60584
G1 X34.565 Y136.336 E25.62415
G1 X34.132 Y135.926 E25.64398
G1 X32.79 Y134.586 E25.70706
G1 X32.314 Y134.096 E25.72978
G1 X31.935 Y133.682 E25.74845
G1 X31.551 Y133.232 E25.76813
G1 X30.49 Y131.925 E25.82412
G1 X29.947 Y131.236 E25.85329
G1 X29.515 Y130.646 E25.87762
G1 X29.098 Y130.026 E25.90247
G1 X28.276 Y128.76 E25.95267
G1 X27.877 Y128.127 E25.97756
G1 X27.526 Y127.524 E26.00077
G1 X27.211 Y126.934 E26.02301
G1 X26.468 Y125.471 E26.07759
G1 X26.149 Y124.822 E26.10164
G1 X25.92 Y124.321 E26.11996
G1 X25.697 Y123.78 E26.13942
G1 X25.073 Y122.159 E26.19719
G1 X24.775 Y121.351 E26.22584
G1 X24.545 Y120.652 E26.25031
G1 X24.355 Y119.984 E26.27341
G1 X23.986 Y118.608 E26.32079
G1 X23.778 Y117.786 E26.349
G1 X23.627 Y117.093 E26.37259
G1 X23.539 Y116.606 E26.38905
G1 X23.257 Y114.826 E26.44899
G1 X23.154 Y114.106 E26.47318
G1 X23.087 Y113.535 E26.4923
G1 X23.043 Y112.952 E26.51175
G1 X22.943 Y111.091 E26.57373
G1 X22.917 Y110.387 E26.59716
G1 X22.912 Y109.784 E26.61722
G1 X22.929 Y109.212 E26.63625
G1 X23.014 Y107.545 E26.69177
G1 X23.072 Y106.669 E26.72097
G1 X23.144 Y105.957 E26.74477
G1 X23.248 Y105.22 E26.76953
G1 X23.595 Y103.085 E26.84147
G1 X23.772 Y102.229 E26.87054
G1 X23.935 Y101.585 E26.89264
G1 X24.355 Y100.019 E26.94656
G1 X24.552 Y99.332 E26.97033
G1 X24.763 Y98.681 E26.9931
G1 X25.004 Y98.018 E27.01656
G1 X25.505 Y96.712 E27.06308
G1 X25.831 Y95.897 E27.09228
G1 X26.059 Y95.367 E27.11147
G1 X26.318 Y94.824 E27.13148
G1 X27.078 Y93.329 E27.18726
G1 X27.48 Y92.563 E27.21603
G1 X27.865 Y91.891 E27.24179
G1 X28.252 Y91.276 E27.26596
G1 X28.994 Y90.133 E27.31128
G1 X29.496 Y89.384 E27.34127
G1 X29.921 Y88.796 E27.3654
G1 X30.325 Y88.278 E27.38725
G1 X31.322 Y87.049 E27.43989
G1 X31.787 Y86.49 E27.46407
G1 X32.278 Y85.941 E27.48857
G1 X32.617 Y85.588 E27.50485
G1 X33.899 Y84.304 E27.56519
G1 X34.388 Y83.828 E27.58789
G1 X34.839 Y83.415 E27.60823
G1 X35.268 Y83.051 E27.62694
G1 X36.575 Y81.99 E27.68294
G1 X37.257 Y81.452 E27.71183
G1 X37.857 Y81.013 E27.73655
G1 X38.474 Y80.598 E27.76129
G1 X39.74 Y79.776 E27.81149
G1 X40.373 Y79.377 E27.83638
G1 X40.985 Y79.021 E27.85993
G1 X41.561 Y78.714 E27.88164
G0 F6000 X41.743 Y79.07
G1 F1200 X43.068 Y78.395 E27.93109
